symbolic/64x64/apps/heroesofnewerth.svg

<svg xmlns="http://www.w3.org/2000/svg" width="64" height="64" version="1">
 <path style="opacity:0.2" d="m 4.0507997,32.000415 c -0.0118,0.333995 -0.050799,0.661991 -0.050799,0.999986 C 4.0000007,48.512179 16.487822,61 31.9996,61 47.511378,61 59.9992,48.512179 59.9992,33.000401 c 0,-0.337675 -0.03904,-0.665271 -0.05078,-0.999986 C 59.420428,47.0422 47.172603,59.000029 31.99882,59.000029 16.824637,59.000029 4.5772122,47.0422 4.0492197,32.000415 Z"/>
 <rect style="fill:#fecd38" width="56" height="56" x="4" y="4" rx="28" ry="28"/>
 <circle style="fill:#31b03b" cx="32" cy="32" r="24"/>
 <path style="opacity:0.2" d="m 12,23 0,5 0,4 0,11 4,0 0,-11 2,0 0,7 4,0 0,-16 -4,0 0,5 -2,0 0,-5 -4,0 z m 20,0 a 7.9998856,7.9998856 0 0 0 -8,8 7.9998856,7.9998856 0 0 0 8,8 7.9998856,7.9998856 0 0 0 8,-8 7.9998856,7.9998856 0 0 0 -8,-8 z m 10,0 0,16 4,0 0,-8.591797 2,3.464844 L 48,43 l 4,0 0,-20 -4,0 0,3.378906 L 46,23 42,23 Z m -10,4 a 3.9999428,3.9999428 0 0 1 4,4 3.9999428,3.9999428 0 0 1 -4,4 3.9999428,3.9999428 0 0 1 -4,-4 3.9999428,3.9999428 0 0 1 4,-4 z m -8,14 0,4 16,0 0,-4 -16,0 z"/>
 <path style="fill:#ffffff" d="M 12 22 L 12 27 L 12 31 L 12 42 L 16 42 L 16 31 L 18 31 L 18 38 L 22 38 L 22 22 L 18 22 L 18 27 L 16 27 L 16 22 L 12 22 z M 32 22 A 7.9998856 7.9998856 0 0 0 24 30 A 7.9998856 7.9998856 0 0 0 32 38 A 7.9998856 7.9998856 0 0 0 40 30 A 7.9998856 7.9998856 0 0 0 32 22 z M 42 22 L 42 38 L 46 38 L 46 29.408203 L 48 32.873047 L 48 42 L 52 42 L 52 22 L 48 22 L 48 25.378906 L 46 22 L 42 22 z M 32 26 A 3.9999428 3.9999428 0 0 1 36 30 A 3.9999428 3.9999428 0 0 1 32 34 A 3.9999428 3.9999428 0 0 1 28 30 A 3.9999428 3.9999428 0 0 1 32 26 z M 24 40 L 24 44 L 40 44 L 40 40 L 24 40 z"/>
 <path style="opacity:0.1;fill:#ffffff" d="M 32 4 C 16.488222 4 4 16.488222 4 32 C 4 32.113554 4.0112846 32.224034 4.0175781 32.335938 C 4.3691163 17.134398 16.710946 5 32 5 C 47.289054 5 59.630884 17.134398 59.982422 32.335938 C 59.988797 32.224034 60 32.113554 60 32 C 60 16.488222 47.511778 4 32 4 z"/>
</svg>

<svg xmlns="http://www.w3.org/2000/svg" width="64" height="64" version="1"><path style="opacity:.2" d="M4.05 32c-.011.334-.05.662-.05 1 0 15.512 12.488 28 28 28 15.511 0 28-12.488 28-28 0-.337-.04-.665-.052-1-.528 15.042-12.775 27-27.95 27C16.826 59 4.579 47.042 4.05 32z"/><rect style="fill:#fecd38" width="56" height="56" x="4" y="4" rx="28" ry="28"/><circle style="fill:#31b03b" cx="32" cy="32" r="24"/><path style="opacity:.2" d="M12 23v20h4V32h2v7h4V23h-4v5h-2v-5h-4zm20 0a8 8 0 0 0-8 8 8 8 0 0 0 8 8 8 8 0 0 0 8-8 8 8 0 0 0-8-8zm10 0v16h4v-8.592l2 3.465V43h4V23h-4v3.379L46 23h-4zm-10 4a4 4 0 0 1 4 4 4 4 0 0 1-4 4 4 4 0 0 1-4-4 4 4 0 0 1 4-4zm-8 14v4h16v-4H24z"/><path style="fill:#fff" d="M12 22v20h4V31h2v7h4V22h-4v5h-2v-5h-4zm20 0a8 8 0 0 0-8 8 8 8 0 0 0 8 8 8 8 0 0 0 8-8 8 8 0 0 0-8-8zm10 0v16h4v-8.592l2 3.465V42h4V22h-4v3.379L46 22h-4zm-10 4a4 4 0 0 1 4 4 4 4 0 0 1-4 4 4 4 0 0 1-4-4 4 4 0 0 1 4-4zm-8 14v4h16v-4H24z"/><path style="opacity:.1;fill:#fff" d="M32 4C16.488 4 4 16.488 4 32c0 .114.011.224.018.336C4.369 17.134 16.71 5 32 5c15.29 0 27.63 12.134 27.982 27.336.007-.112.018-.222.018-.336C60 16.488 47.512 4 32 4z"/></svg>
